img/vector/pin.svg

<svg width="34" height="34" viewBox="0 0 34 34" fill="none" xmlns="http://www.w3.org/2000/svg">
<path d="M32.2538 12.3756L14.9745 29.4631C12.1115 32.2946 7.46908 32.2946 4.60601 29.4631C1.74295 26.6316 1.74295 22.0414 4.60601 19.2099L20.1582 3.83135C22.0673 1.94404 25.161 1.94404 27.0702 3.83135C28.9793 5.7186 28.9793 8.77956 27.0702 10.6668L11.5179 26.0454C10.564 26.9897 9.01654 26.9897 8.06137 26.0454C7.10742 25.1024 7.10742 23.572 8.06137 22.6277L21.8853 8.95792L20.157 7.24908L6.33433 20.92C4.42521 22.8073 4.42521 25.8682 6.33433 27.7555C8.24345 29.6428 11.3371 29.6428 13.2463 27.7555L28.7985 12.3769C31.6616 9.54538 31.6616 4.95522 28.7985 2.12368C25.9354 -0.707811 21.2931 -0.707811 18.43 2.12368L2.01359 18.3567L2.07308 18.4161C-0.90896 22.2076 -0.646805 27.6887 2.87775 31.1731C6.40231 34.6576 11.9428 34.9186 15.778 31.9681L15.8375 32.0276L33.9809 14.0857L32.2538 12.3756Z" fill="white"/>
</svg>

<svg width="34" height="34" fill="none" xmlns="http://www.w3.org/2000/svg"><path d="m32.254 12.376-17.28 17.087c-2.863 2.832-7.505 2.832-10.368 0a7.193 7.193 0 0 1 0-10.253L20.158 3.83a4.927 4.927 0 0 1 6.912 0 4.795 4.795 0 0 1 0 6.836L11.518 26.045a2.463 2.463 0 0 1-3.457 0 2.398 2.398 0 0 1 0-3.417l13.824-13.67-1.728-1.709L6.334 20.92a4.795 4.795 0 0 0 0 6.835 4.927 4.927 0 0 0 6.912 0L28.8 12.378a7.193 7.193 0 0 0 0-10.253c-2.864-2.832-7.506-2.832-10.369 0L2.014 18.357l.06.06a9.583 9.583 0 0 0 .804 12.756c3.524 3.485 9.065 3.746 12.9.795l.06.06L33.98 14.086l-1.727-1.71Z" fill="#fff"/></svg>
